src/assets/duotone/Grid8.svg

<svg width="24" height="24" viewBox="0 0 24 24"  xmlns="http://www.w3.org/2000/svg">
<path opacity="0.4" d="M22 7.81V12H15.75V2H16.19C19.83 2 22 4.17 22 7.81Z" />
<path d="M22 12V16.19C22 19.83 19.83 22 16.19 22H15.75V12H22Z" />
<path d="M8.25 12V22H7.81C4.17 22 2 19.83 2 16.19V12H8.25Z" />
<path opacity="0.4" d="M7.81 2C4.17 2 2 4.17 2 7.81V12H8.25V2H7.81Z" />
<path d="M15.75 2H8.25V12H15.75V2Z" />
<path opacity="0.4" d="M15.75 12H8.25V22H15.75V12Z" />
</svg>

<?xml version="1.0" encoding="UTF-8"?>
<svg width="24" height="24" viewBox="0 0 24 24" xmlns="http://www.w3.org/2000/svg">
 <path d="M22 7.81V12H15.75V2H16.19C19.83 2 22 4.17 22 7.81Z" opacity=".4"/>
 <path d="M22 12V16.19C22 19.83 19.83 22 16.19 22H15.75V12H22Z"/>
 <path d="M8.25 12V22H7.81C4.17 22 2 19.83 2 16.19V12H8.25Z"/>
 <path d="M7.81 2C4.17 2 2 4.17 2 7.81V12H8.25V2H7.81Z" opacity=".4"/>
 <path d="m15.75 2h-7.5v10h7.5v-10z"/>
 <path d="m15.75 12h-7.5v10h7.5v-10z" opacity=".4"/>
</svg>
